X: 42038
T: Waltz For Kylin
R: waltz
M: 3/4
K: Dmajor
|:FE|D3F A>B|A4 d>e|f>e d>f e>d|B4 Bc|
d>B A>F A>B|A2 F3D|G2 F2 D2|E4 EF/E/|
D3F A>B|A4 d>e|f>e d>f e>d|B4 B>c|
d>B A>F A>B|E4 D2|E<D D4|D4:|
d>e|f>e d>f e>d|B4 AB/c/|d2 d>e f>g|e4 d>e|
f>e d>f e>d|B3g f>g|f3g f>g|e4 d>c|
d2 D>F d>B|A4 d>e|f>e d>f e>d|B4 B>c|
d>B A>F A>B|E4 D2|E<D D4|D4:|

